X:51
T:Flora McDonald's Reel
B:NFID.187a
051flora_m
S:DOD
L:1/8
M:C
R:reel
Q:360
K:Em
E2EF BAFD|E2E^c dAFD|E2EF EFGA|BdAd FDD|
Eeed eEEF|Eee^c dDDF|Eeed B^cde|faef dDD|

%%%

